tools/download-figma-icons/icons/outlined-large/emob-cable-spiral.svg

<svg width="64" height="64" viewBox="0 0 64 64" fill="none" xmlns="http://www.w3.org/2000/svg">
<path fill-rule="evenodd" clip-rule="evenodd" d="M40.409 5.28438C37.36 5.00838 30.377 4.60838 24.377 5.97438C18.334 7.34938 13.381 9.37938 11.248 10.3274L12.478 14.6274C14.694 13.9574 19.023 12.6474 22.524 11.5704C26.319 10.4014 27.731 11.4904 28.851 12.7034C29.337 13.2324 29.358 13.2504 30.083 13.0554C32.484 12.4084 37.029 12.1424 39.218 12.0484L40.409 5.28438ZM17.289 20.5654C17.705 20.0454 18.416 19.8634 19.029 20.1144C19.647 20.3664 20.023 20.9934 19.955 21.6554C19.916 22.0394 18.919 31.1664 12.515 37.5624C12.222 37.8554 11.838 38.0014 11.453 38.0014C11.069 38.0014 10.685 37.8554 10.392 37.5624C9.805 36.9764 9.805 36.0274 10.392 35.4414C13.206 32.6294 14.848 29.1304 15.786 26.3224C11.624 29.6084 7.628 30.0194 4.91 29.0674C1.881 28.0054 0 25.2864 0 21.9704C0 15.9544 5.965 12.9354 8.575 11.9014L8.007 9.91538C7.809 9.22038 8.134 8.48238 8.783 8.16038L8.78586 8.15897C9.08631 8.01159 15.3016 4.96285 23.71 3.04838C32.145 1.12938 41.954 2.41938 42.368 2.47638C42.773 2.53138 43.139 2.74738 43.379 3.07838C43.62 3.40738 43.717 3.82138 43.646 4.22238L41.966 13.7634C41.841 14.4664 41.239 14.9844 40.525 15.0024L40.5204 15.0025C40.3101 15.0085 33.659 15.1987 30.866 15.9524C28.3829 16.6229 27.2936 15.4431 26.6435 14.739L26.642 14.7374C26.102 14.1514 25.71 13.7304 23.408 14.4374C18.468 15.9564 11.888 17.9404 11.888 17.9404C11.745 17.9824 11.599 18.0034 11.453 18.0034C11.204 18.0034 10.957 17.9424 10.733 17.8204C10.381 17.6274 10.12 17.3014 10.01 16.9154L9.406 14.8054C7.256 15.7094 3.003 17.9984 3.003 21.9704C3.003 24.0044 4.088 25.5994 5.904 26.2364C8.49 27.1434 12.836 26.1254 17.289 20.5654ZM24.6221 24.0115C23.7971 23.9355 23.0611 24.5255 22.9751 25.3485C22.9661 25.4325 22.0291 33.8165 16.3981 39.4415C15.8111 40.0275 15.8111 40.9765 16.3981 41.5625C16.6911 41.8555 17.0761 42.0015 17.4601 42.0015C17.8451 42.0015 18.2281 41.8555 18.5211 41.5625C24.9261 35.1655 25.9231 26.0395 25.9621 25.6555C26.0461 24.8305 25.4461 24.0965 24.6221 24.0115ZM30.6289 28.0115C29.7979 27.9345 29.0669 28.5255 28.9819 29.3485L28.9815 29.3516C28.9582 29.5529 27.9954 37.8569 22.4049 43.4415C21.8179 44.0265 21.8179 44.9755 22.4049 45.5615C22.6979 45.8545 23.0829 46.0005 23.4669 46.0005C23.8519 46.0005 24.2349 45.8545 24.5279 45.5615C30.9329 39.1655 31.9299 30.0395 31.9689 29.6555C32.0529 28.8305 31.4529 28.0965 30.6289 28.0115ZM34.9877 33.3475C35.0747 32.5245 35.8157 31.9345 36.6357 32.0115C37.4597 32.0955 38.0597 32.8295 37.9757 33.6545C37.9367 34.0385 36.9397 43.1655 30.5347 49.5615C30.2417 49.8545 29.8587 50.0005 29.4737 50.0005C29.0897 50.0005 28.7047 49.8545 28.4117 49.5615C27.8247 48.9755 27.8247 48.0265 28.4117 47.4405C34.0427 41.8165 34.9787 33.4315 34.9877 33.3475ZM42.6426 36.0105C41.8166 35.9325 41.0816 36.5245 40.9946 37.3475C40.9856 37.4315 40.0496 45.8155 34.4186 51.4405C33.8316 52.0265 33.8316 52.9755 34.4186 53.5615C34.7116 53.8545 35.0966 54.0005 35.4806 54.0005C35.8646 54.0005 36.2486 53.8545 36.5416 53.5615C42.9466 47.1645 43.9436 38.0385 43.9826 37.6545C44.0666 36.8295 43.4666 36.0955 42.6426 36.0105ZM47.0014 41.3475C47.0874 40.5245 47.8184 39.9315 48.6494 40.0105C49.4734 40.0955 50.0734 40.8295 49.9894 41.6545C49.9504 42.0385 48.9534 51.1645 42.5484 57.5605C42.2554 57.8535 41.8714 57.9995 41.4874 57.9995C41.1034 57.9995 40.7184 57.8535 40.4254 57.5605C39.8384 56.9745 39.8384 56.0255 40.4254 55.4405C46.0564 49.8155 46.9924 41.4315 47.0014 41.3475ZM62.498 56.908C60.37 56.908 58.8 56.279 57.7 54.985C55.463 52.351 55.756 47.729 55.921 46.231C55.97 45.905 55.991 45.703 55.996 45.653C56.078 44.847 55.506 44.122 54.702 44.014C53.919 43.902 53.154 44.453 53.02 45.253C53.0187 45.263 53.016 45.2803 53.0123 45.3047C52.9991 45.3901 52.9728 45.5617 52.944 45.806C52.662 47.641 51.304 54.573 46.433 59.439C45.846 60.025 45.846 60.974 46.433 61.56C46.726 61.853 47.109 62 47.494 62C47.878 62 48.263 61.853 48.556 61.56C50.939 59.18 52.573 56.422 53.688 53.878C54.079 54.961 54.631 56.005 55.402 56.916C57.084 58.901 59.472 59.908 62.498 59.908C63.327 59.908 64 59.236 64 58.408C64 57.58 63.327 56.908 62.498 56.908Z" fill="black"/>
</svg>

<svg width="64" height="64" viewBox="0 0 64 64" fill="none" xmlns="http://www.w3.org/2000/svg"><path fill-rule="evenodd" clip-rule="evenodd" d="M40.409 5.284c-3.049-.276-10.032-.676-16.032.69a74.087 74.087 0 0 0-13.129 4.353l1.23 4.3c2.216-.67 6.545-1.98 10.046-3.057 3.795-1.169 5.207-.08 6.327 1.133.486.53.507.547 1.232.352 2.401-.647 6.946-.913 9.135-1.007l1.191-6.764Zm-23.12 15.281a1.503 1.503 0 0 1 2.666 1.09c-.039.384-1.036 9.511-7.44 15.907a1.496 1.496 0 0 1-1.062.44c-.384 0-.768-.147-1.061-.44a1.497 1.497 0 0 1 0-2.12c2.814-2.813 4.456-6.312 5.394-9.12-4.162 3.286-8.158 3.697-10.876 2.745C1.881 28.005 0 25.287 0 21.97c0-6.016 5.965-9.035 8.575-10.069l-.568-1.986a1.5 1.5 0 0 1 .776-1.755l.003-.001c.3-.147 6.516-3.196 14.924-5.11 8.435-1.92 18.244-.63 18.658-.573a1.498 1.498 0 0 1 1.278 1.746l-1.68 9.541a1.502 1.502 0 0 1-1.441 1.24h-.005c-.21.005-6.861.196-9.654.95-2.483.67-3.572-.51-4.223-1.214l-.001-.002c-.54-.586-.932-1.007-3.234-.3-4.94 1.52-11.52 3.503-11.52 3.503a1.502 1.502 0 0 1-1.878-1.025l-.604-2.11c-2.15.904-6.403 3.193-6.403 7.165 0 2.034 1.085 3.63 2.901 4.266 2.586.907 6.932-.11 11.385-5.67Zm7.333 3.447a1.507 1.507 0 0 0-1.647 1.337c-.009.084-.946 8.467-6.577 14.092a1.497 1.497 0 0 0 1.062 2.56c.385 0 .768-.145 1.061-.438 6.405-6.398 7.402-15.524 7.441-15.908a1.5 1.5 0 0 0-1.34-1.643Zm6.007 4a1.502 1.502 0 0 0-1.647 1.337v.003c-.024.2-.987 8.505-6.577 14.09a1.496 1.496 0 0 0 0 2.12 1.498 1.498 0 0 0 2.122-.001c6.406-6.395 7.403-15.521 7.442-15.905a1.5 1.5 0 0 0-1.34-1.644Zm4.359 5.335a1.51 1.51 0 0 1 1.648-1.336 1.498 1.498 0 0 1 1.34 1.643c-.04.384-1.036 9.511-7.441 15.907a1.494 1.494 0 0 1-1.061.44c-.384 0-.77-.146-1.062-.44a1.497 1.497 0 0 1 0-2.12c5.63-5.625 6.567-14.01 6.576-14.094Zm7.655 2.663a1.507 1.507 0 0 0-1.648 1.337c-.01.084-.945 8.468-6.576 14.093A1.497 1.497 0 0 0 35.48 54a1.49 1.49 0 0 0 1.06-.438c6.406-6.398 7.403-15.523 7.442-15.907a1.5 1.5 0 0 0-1.34-1.645ZM47 41.347a1.503 1.503 0 0 1 2.988.307c-.039.384-1.036 9.51-7.44 15.906a1.495 1.495 0 0 1-1.062.44c-.384 0-.769-.147-1.062-.44a1.496 1.496 0 0 1 0-2.12c5.631-5.624 6.567-14.008 6.576-14.093Zm15.497 15.561c-2.128 0-3.698-.629-4.798-1.923-2.237-2.634-1.944-7.256-1.779-8.754.049-.326.07-.528.075-.578a1.5 1.5 0 0 0-1.294-1.639 1.51 1.51 0 0 0-1.682 1.239l-.008.052c-.013.085-.04.257-.068.501-.282 1.835-1.64 8.767-6.511 13.633a1.497 1.497 0 0 0 0 2.121 1.499 1.499 0 0 0 2.123 0c2.383-2.38 4.017-5.138 5.132-7.682.391 1.083.943 2.127 1.714 3.038 1.682 1.985 4.07 2.992 7.096 2.992.829 0 1.502-.672 1.502-1.5s-.673-1.5-1.502-1.5Z" fill="currentColor"/></svg>
